X:209
T:Wake, Awake, for Night Is Flying
%%stretchlast false
M:none
L:1/4
K:Ab clef=C1
"^I"[A,,C,E,A,]2 "^vi"[F,,F,A,C]2 | "^V"[E,,G,B,E]3 [E,G,B,E] | "^iii"[C,G,CE] "^I"[A,,A,CE] "^vi"[F,,A,CF] "^V¹"[G,,E,B,E] | "^vi7¹"[A,,E,CF] "^II"[B,,=D,B,F]/ "^II7"[B,,=D,A,F]/ "^V"[E,,E,G,E]2 | "^♯vii"[A,,A,]/ "^I"[A,,C,A,E]/ [A,,C,CE]/ [A,,E,CA]/ "^v"[E,B,A]/ "^V"[E,G,B,E]/ "^Imaj7¹"[C,G,A,E]/ "^I¹"[C,E,A,A]/ | "^v¹"[A,,E,EA]/ "^I"[A,,A,Ec]/ "^Imaj7³"[G,,A,Ec]/ "^V¹"[G,,B,EB]/ [A,,B,EB]/ "^I"[A,,A,Ec]/ "^iii7³"[B,,G,Ec]/ [B,,F,EB]/ | "^II"[B,,F,=DB] "^V/V"[E,F,B,B]/ "^V"[E,G,B,E]3/2 "^Imaj7"[A,,G,CE] | "^vi7"[F,,A,CE] "^iii+"[C,A,CA] "^♯iii°"[D,G,A,E] "^♯vii"[A,,F,A,F] | "^iii"[B,,E,F,C] "^♯iii°"[E,,D,G,D] "^v¹"[A,,E,A,B,] "^iii+"[A,,C,A,]3 | "^I"[A,,C,E,A,] [A,,C,E,A,] | "^vi"[F,,C,A,] [F,,F,A,C] "^iii"[E,,F,B,C] "^V"[E,,G,B,E]2 | [E,G,B,E] "^iii"[C,G,CE] "^Imaj7"[A,,G,CE] | "^vi7"[F,,A,CE] "^vii"[G,,A,B,F] "^I"[A,,E,CE] "^v"[B,,E,B,F]/ [B,,E,A,F]/ | "^V"[E,,=D,G,F] [E,,E,G,E] "^v¹"[A,,E,A,E] "^iii+"[A,,C]/ "^I"[A,,C,CE]/ | [C,E,B,E]/ "^v"[E,B,A]/ "^I¹"[C,E,A,A]/ "^Imaj7¹"[C,G,A,E]/ "^v¹"[A,,G,E]/ [A,,E,EA]/ "^V"[G,,E,EA]/ "^Imaj7³"[G,,A,Ec]/ | "^I"[A,,A,Ec]/ "^v¹"[A,,B,EB]/ "^v"[B,,B,EB]/ "^iii+"[B,,A,Ec]/ "^vii¹"[B,,G,=Dc]/ "^II"[B,,F,=DB]/ "^V/V"[E,F,B,B]3/2 | "^V"[E,G,B,E]/ "^Imaj7"[A,,G,CE] "^iii"[F,,G,CE] "^I¹"[C,A,CE] | "^♯iii"[D,A,A] "^v¹"[A,,G,A,E] "^ii"[B,,F,F] "^iii¹"[E,,E,G,C] | "^♯iii"[A,,D,A,D] "^v¹"[A,,E,A,B,] "^iii"[G,,C,A,B,] "^iii+"[A,,C,A,C]3/2 | "^I"[A,,E,CE] [A,,E,CE]/ "^♯iii"[D,E,B,E] "^v"[E,A,E] | "^V"[E,,E,G,E]/ "^♯iii°"[E,,F,G,D]/ "^IV²"[A,,F,A,D]/ "^I"[A,,E,A,C] [A,,E,A,B,]/ [A,,E,B,C]/ "^iii+"[A,,C,A,C]/ | "^I²"[E,,C,A,B,]2 "^v"[E,,A,B,E] [F,,_G,A,E] | [A,,_G,A,E] "^V"[E,,_G,G,E] "^IV²"[A,,F,A,D] "^I"[A,,E,A,C] | "^V"[E,,E,G,B,] "^iii+"[A,,C,A,] [B,,C,A,] "^V²"[B,,E,G,B,] | "^I"[A,,E,A,C] "^♯iii"[A,,D,A,D] [A,,D,CD] "^I"[A,,E,C] | "^♯iii"[D,E,CD] [B,,A,DE] "^vi7"[F,A,CE] "^vi"[F,A,CF] | "^vii"[F,B,CG] "^IV¹"[F,A,DA] "^v"[E,A,EA] [E,A,EA] | "^iii+"[A,,A,CA] [A,,A,Cc] "^iii+²"[A,,G,CB] "^iii+"[A,,A,CA] | "^vi"[F,,A,CA] "^I¹"[C,A,CE] "^♯iii"[D,A,E] "^♯vii"[A,,A,A] | "^♯iii°"[D,,G,A,E] "^V"[E,,F,G,F] "^I"[A,,E,A,C] "^IV²"[A,,F,A,D] | "^v¹"[A,,E,A,B,] "^iii+"[A,,C,A,]4 |]
